static/img/suprema-logo-white.svg

<svg width="108" height="16" viewBox="0 0 108 16" fill="none" xmlns="http://www.w3.org/2000/svg">
<path d="M24.473 0.690556L24.4859 9.65181C24.4866 10.2381 24.4875 11.1235 24.0004 11.6127C23.6621 11.9541 23.1117 12.1247 22.3653 12.1256L19.9734 12.1284C19.5721 12.1288 18.8989 12.1295 18.415 11.6506C18.0153 11.2515 17.8111 10.5831 17.8099 9.66611L17.7997 0.698269L14.8105 0.701672L14.8207 9.71284C14.8216 10.6124 15.0401 15.0981 19.2703 15.0931L23.2098 15.0888C24.8106 15.0868 27.4977 14.3832 27.4922 9.69832L27.482 0.687153L24.473 0.690556Z" fill="#ffffff"/>
<path d="M7.82849 5.97614L4.56265 5.57049C3.77495 5.44208 3.07686 5.2608 3.07572 4.42228C3.07436 3.0978 3.45415 2.73866 6.12513 2.73548L6.79281 2.7348C8.36414 2.81148 9.82339 2.95078 11.6105 3.44038L11.8276 3.50027L11.8253 1.43845L11.8056 1.4026C11.537 0.873535 9.08106 0.0329707 6.67983 0.0356932L6.01577 0.0363735C1.96427 0.0409109 -0.00339869 1.54621 4.40656e-06 4.63872C0.0034075 7.60781 2.49584 8.24487 4.8315 8.60718L6.28348 8.81001C7.34412 8.94341 7.95894 9.02849 8.33396 9.17913C8.96263 9.43141 9.31133 9.64445 9.29908 10.6354C9.27912 12.2812 8.18309 12.4606 5.80932 12.4636L5.14322 12.4643C3.74613 12.4656 2.05253 12.072 0.244573 11.3256L0.00749144 11.2253L0.00975979 13.2436C0.0106673 14.0628 2.47973 15.0962 5.25393 15.0933L5.86354 15.0926C10.3881 15.0871 12.493 13.5616 12.4891 10.2879C12.4855 7.12048 10.131 6.33074 7.82849 5.97614Z" fill="#ffffff"/>
<path d="M37.733 0.0169736L37.2933 0.0174271C31.8248 0.0237795 29.7945 2.08333 29.8008 7.62062L29.809 15.0931L33.002 15.0897L32.9938 7.62856C32.9891 3.42937 33.9272 2.72062 36.7454 2.71744L37.4621 2.71654C40.1796 2.71359 40.6801 3.50492 40.6801 5.44378C40.6801 6.6428 40.2899 8.02763 39.1809 8.02877L34.1493 7.94255L34.1516 10.1371L34.2952 10.16C35.3075 10.3281 37.0996 10.452 38.4635 10.452C43.1637 10.452 43.9294 7.86905 43.9271 5.7074C43.923 2.13982 41.6069 0.012663 37.733 0.0169736Z" fill="#ffffff"/>
<path d="M54.6737 0.199833C53.8442 0.0682468 51.9038 -0.00117558 50.9192 -4.12112e-05C49.1668 0.00200065 46.2299 0.716196 46.2354 5.48484L46.246 15.0931L49.3762 15.0895L49.3658 5.68653C49.363 3.15576 49.8243 2.89667 51.8037 2.89418L54.6737 2.891V0.199833Z" fill="#ffffff"/>
<path d="M64.3477 12.3332L63.737 12.3341C61.0823 12.3371 59.4713 12.0231 59.4663 7.63627C59.4615 3.44819 60.4022 2.73989 63.2335 2.73672L63.9491 2.73604C66.5944 2.73309 67.1659 3.16437 67.1682 5.16675C67.1693 6.16545 66.7219 6.59288 65.6695 6.59401L60.6342 6.59991L60.6367 8.69622L60.7792 8.72027C61.7784 8.8911 63.5743 9.01633 64.9555 9.01475C66.9953 9.01248 70.4118 8.62112 70.4118 4.70643C70.4118 0.694179 67.0455 0.0332978 64.2254 0.0362472L63.7817 0.0369274C58.3034 0.043053 56.2676 2.10283 56.274 7.6399C56.2799 12.9387 58.3628 15.0988 63.4652 15.0931L63.8531 15.0927C67.0849 15.0888 69.8169 14.2353 69.816 13.2303L69.814 11.4834L69.5985 11.5417C67.7199 12.0415 66.2593 12.3312 64.3477 12.3332Z" fill="#ffffff"/>
<path d="M91.5302 5.5798C91.5272 2.9762 90.5444 1.63969 89.4847 0.953403L89.4869 0.953176C89.4869 0.953176 88.336 0.0872017 86.2855 0.0872017C85.2871 0.0808492 84.5009 0.224914 83.8904 0.421159C83.044 0.65688 82.5174 1.06797 82.252 1.32865C82.1603 1.41622 82.1161 1.47249 82.1161 1.47249C82.1161 1.47249 81.0296 0.0681444 77.9466 0.0872017C76.5994 0.0872017 75.644 0.460181 75.1442 0.716547C75.1268 0.725395 75.11 0.73447 75.0925 0.743318C75.0648 0.758065 75.0401 0.771451 75.0156 0.78529C72.9971 1.87882 72.7319 4.36648 72.733 5.60135L72.7437 15.0933L75.59 15.0899L75.5794 5.59795C75.578 4.16751 75.8711 2.84348 78.0121 2.84099C80.2294 2.83849 80.6641 3.84603 80.6661 5.59227L80.6765 15.0842L83.6057 15.0808L83.5953 5.58887C83.5932 3.68994 84.3732 2.80537 86.0489 2.80355C87.8612 2.80151 88.6711 3.65886 88.6734 5.5832L88.684 15.0751L91.5406 15.0717L91.5302 5.5798Z" fill="#ffffff"/>
<path d="M99.9263 2.79616L100.537 2.79548C103.192 2.79253 104.802 3.10652 104.808 7.49311C104.812 11.6812 103.872 12.3895 101.04 12.3927L100.325 12.3936C97.6795 12.3965 97.108 11.9652 97.1055 9.96262C97.1044 8.96393 97.5518 8.53673 98.6045 8.53559L103.639 8.52969L103.637 6.43316L103.495 6.40934C102.495 6.2385 100.7 6.11304 99.3182 6.11463C97.2786 6.11712 93.8619 6.50848 93.8619 10.4229C93.8619 14.4354 97.2285 15.0963 100.048 15.0931L100.492 15.0927C105.97 15.0863 108.006 13.0268 108 7.48948C107.994 2.19086 105.911 0.0305754 100.809 0.0362472L100.421 0.0367007C97.189 0.0405575 94.4568 0.894281 94.4577 1.8991L94.4597 3.64625L94.6753 3.58794C96.5538 3.08814 98.0146 2.79843 99.9263 2.79616Z" fill="#ffffff"/>
</svg>

<svg xmlns="http://www.w3.org/2000/svg" width="108" height="16" fill="none" viewBox="0 0 108 16"><path fill="#fff" d="m24.473.69.013 8.962c0 .586.002 1.472-.486 1.96-.338.342-.888.513-1.635.514l-2.392.002c-.4 0-1.074.002-1.558-.477-.4-.4-.604-1.068-.605-1.985L17.8.698l-2.99.004.01 9.01c.002.9.22 5.386 4.45 5.381l3.94-.004c1.6-.002 4.288-.706 4.282-5.39l-.01-9.012zM7.828 5.976 4.563 5.57c-.788-.128-1.486-.31-1.487-1.148-.002-1.324.378-1.683 3.05-1.687h.667c1.571.076 3.03.216 4.818.705l.217.06-.003-2.062-.02-.035C11.538.873 9.082.033 6.68.036h-.664C1.964.041-.004 1.546 0 4.64c.003 2.969 2.496 3.606 4.832 3.968l1.451.203c1.061.133 1.676.218 2.051.37.629.251.977.464.965 1.455-.02 1.646-1.116 1.826-3.49 1.829h-.666c-1.397.002-3.09-.392-4.898-1.138l-.238-.1.003 2.018c0 .819 2.47 1.852 5.244 1.85l.61-.001c4.524-.006 6.629-1.531 6.625-4.805-.004-3.168-2.358-3.957-4.66-4.312M37.733.017h-.44c-5.468.007-7.498 2.066-7.492 7.604l.008 7.472 3.193-.003-.008-7.461c-.005-4.2.933-4.908 3.751-4.912h.717c2.718-.003 3.218.788 3.218 2.727 0 1.199-.39 2.584-1.5 2.585l-5.03-.086.002 2.194.143.023c1.012.168 2.805.292 4.169.292 4.7 0 5.465-2.583 5.463-4.745-.004-3.567-2.32-5.694-6.194-5.69M54.674.2c-.83-.132-2.77-.201-3.755-.2-1.752.002-4.69.716-4.684 5.485l.011 9.608 3.13-.004-.01-9.402c-.003-2.531.458-2.79 2.438-2.793l2.87-.003zM64.348 12.333l-.611.001c-2.655.003-4.266-.31-4.27-4.698-.005-4.188.935-4.896 3.767-4.9h.715c2.645-.003 3.217.428 3.22 2.43 0 1-.447 1.427-1.5 1.428l-5.035.006.003 2.096.142.024c1 .171 2.795.296 4.176.295 2.04-.003 5.457-.394 5.457-4.309 0-4.012-3.367-4.673-6.187-4.67h-.443c-5.479.007-7.514 2.067-7.508 7.604.006 5.299 2.089 7.459 7.191 7.453h.388c3.232-.004 5.964-.858 5.963-1.863l-.002-1.747-.215.059c-1.88.5-3.34.79-5.251.791M91.53 5.58c-.003-2.604-.986-3.94-2.045-4.627h.002S88.336.087 86.286.087C85.287.081 84.5.225 83.89.421c-.846.236-1.373.647-1.638.908a2 2 0 0 0-.136.143S81.03.068 77.946.087c-1.347 0-2.302.373-2.802.63l-.052.026-.076.042c-2.019 1.094-2.284 3.581-2.283 4.816l.01 9.492 2.847-.003-.01-9.492c-.002-1.43.291-2.755 2.432-2.757 2.217-.003 2.652 1.005 2.654 2.751l.01 9.492 2.93-.003-.01-9.492c-.003-1.9.777-2.784 2.453-2.785 1.812-.002 2.622.855 2.624 2.78l.011 9.491 2.857-.003zM99.926 2.796h.611c2.655-.003 4.265.31 4.271 4.697.004 4.188-.936 4.897-3.768 4.9h-.715c-2.645.003-3.217-.428-3.22-2.43 0-1 .447-1.426 1.5-1.427l5.034-.006-.002-2.097-.142-.024c-1-.17-2.795-.296-4.177-.294-2.04.002-5.456.393-5.456 4.308 0 4.012 3.367 4.673 6.186 4.67h.444c5.478-.007 7.514-2.066 7.508-7.604-.006-5.298-2.089-7.458-7.191-7.453h-.388c-3.232.005-5.964.858-5.963 1.863l.002 1.747.215-.058c1.879-.5 3.34-.79 5.251-.792"/></svg>
